!!!OTL: "Vor der Hochzeit" JUCHHE BAL KANN I WIBE
!!!ARE: Europa, Mitteleuropa, Schweiz
!!!SCT: Z1218
!!!YEM: Copyright 1995, estate of Helmut Schaffrath.
**kern
*ICvox
*Ivox
*M2/4
*k[f#]
*G:
{8d
=1
8g
8a
8b
8cc
=2
4dd
8b}
{8dd
=3
16cc
16a
8cc
16b
16g
8b
=4
4a
8r}
{8b
=5
8cc
8a
8b
8g
=6
16f#
16g
16a
16g
8d}
{8dd
=7
8cc
8a
8b
8g
=8
8f#
8g
8a}
{8gg
=9
8.dd
16cc
8.b
16a
=10
4g
8r}
==
!!!AGN: Liebes - Lied, Hochzeits - Lied
!!!ONB: ESAC (Essen Associative Code) Database: ZUCCAL
!!!AMT: simple duple
!!!AIN: vox
!!!EED: Helmut Schaffrath
!!!EEV: 1.0
*-
